X:1
T:The Cleft of the Rock
T:The Cleft of the Rock
T:Samuel E. Good
T:Samuel E. Good, 1902
T:Public Domain Courtesy of the Cyber Hymnal™
C:Samuel E. Good
Z:Public Domain
Z:Courtesy of the Cyber Hymnal™
%%score ( 1 2 ) ( 3 4 )
L:1/8
Q:1/4=103
M:4/4
K:G
V:1 treble 
V:2 treble 
V:3 bass 
V:4 bass 
V:1
 (D>D) | [DG]2 [DG]>[DG] [DG]2 [DB]2 | [DG]4 [B,D]2 [B,D]>[B,D] | %3
w: 1.~There’s~a *|cleft in the Rock of|Ag- es, Where my|
w: 2.~There~is *|peace for the soul that|hid- eth In the|
w: 3.~Oh, *|soul, thou who now art|wea- ry, To the|
 [CE]2 ([CE][CE]) [EG]2 ([DF][CE]) |S [B,D]6 DD | [DB]2 [Dd]2 [DG]2 (D[D=F]) | %6
w: soul may * safe- ly *|hide While the|storms of life are *|
w: Rock that~is * high- er~than *|I, For the|soul that on- ly~con- *|
w: Rock do * come for *|rest; Come to|Him who on- ly~can *|
 [CE]4 !fermata![Ec]2 [CE]>[CE] | [B,D]2 [DB]>[DB] [DA]2 [DF]2 | [DG]6!fine! ||"^Refrain" D>D | %10
w: rag- ing, And the|bil- lows roll o’er the|tide.||
w: fid- eth And the|cleft of the Rock will|try.|Oh, the|
w: cheer thee, To the|dear lov- ing Sav- ior’s|breast.||
 D6 [DB]>[DG] | D6 [DG]>[DF] | [CE]6 [Ec]2 | [DB]6!D.S.! |] %14
w: ||||
w: cleft of the|Rock Where my|soul may|hide.|
w: ||||
V:2
 D>D | x8 | x8 | x8 | x6 DD | x6 D x | x8 | x8 | x6 || D>D | D6 x2 | D6 x2 | x8 | x6 |] %14
V:3
 ([G,B,]>[G,B,]) | [G,B,]2 [G,B,]>[G,B,] [G,B,]2 G,2 | [G,B,]4 G,2 [G,,G,]>[G,,G,] | %3
w: |* * * * Oh,|* the * *|
 [C,G,]2 ([C,G,][C,G,]) [C,G,]2 ([C,G,][C,G,]) | [G,,G,]6 [G,B,][G,B,] | %5
w: ||
 G,2 [G,B,]2 [B,,G,]2 ([B,,G,][B,,G,]) | [C,G,]4 !fermata![C,G,]2 [C,G,]>[C,G,] | %7
w: cleft * * * *||
 [D,G,]2 [D,G,]>[D,G,] [D,F,]2 [D,C]2 | [G,,G,B,]6 || [G,B,]>[G,B,] | %10
w: ||of the|
 [G,B,]2 [G,B,][G,B,] [G,B,]2 G,>[G,B,] | [G,B,]2 [G,B,][G,B,] [G,B,]2 [B,,G,]>[B,,G,] | %12
w: Rock, Oh, the cleft of the|Rock, Where my soul may se-|
 [C,G,]2 [C,G,][C,G,] [C,G,][C,G,] [C,G,]>[C,G,] | [G,,G,]2 [G,,G,]2 [G,,G,]2 |] %14
w: cure- ly, may se- cure- ly hide.||
V:4
 x2 | x6 G,2 | x4 G,2 x2 | x8 | x8 | G,2 x6 | x8 | x8 | x6 || x2 | x6 G,3/2 x/ | x8 | x8 | x6 |] %14

